svgs/duotone/camera-movie.svg

<svg xmlns="http://www.w3.org/2000/svg" viewBox="0 0 576 512"><!-- Font Awesome Pro 6.0.0-alpha2 by @fontawesome - https://fontawesome.com License - https://fontawesome.com/license (Commercial License) --><defs><style>.fa-secondary{opacity:.4}</style></defs><path d="M368 288H32C14.327 288 0 302.327 0 320V320C0 337.673 14.327 352 32 352H64V464C64 490.51 85.49 512 112 512H368C394.51 512 416 490.51 416 464V336C416 309.49 394.51 288 368 288ZM128 160C145.674 160 160 145.672 160 128C160 110.326 145.674 96 128 96S96 110.326 96 128C96 145.672 110.326 160 128 160ZM352 160C369.674 160 384 145.672 384 128C384 110.326 369.674 96 352 96S320 110.326 320 128C320 145.672 334.326 160 352 160Z" class="fa-secondary"/><path d="M352 0C303.375 0 261.75 27.375 240 67.25C218.25 27.375 176.625 0 128 0C57.25 0 0 57.25 0 128S57.25 256 128 256H352C422.75 256 480 198.75 480 128S422.75 0 352 0ZM128 192C92.625 192 64 163.375 64 128S92.625 64 128 64S192 92.625 192 128S163.375 192 128 192ZM352 192C316.625 192 288 163.375 288 128S316.625 64 352 64S416 92.625 416 128S387.375 192 352 192ZM524.801 262.455L448 320V448L524.76 505.539C545.871 521.367 576 506.309 576 479.928V288.047C576 261.688 545.896 246.641 524.801 262.455Z" class="fa-primary"/></svg>

<svg xmlns="http://www.w3.org/2000/svg" viewBox="0 0 576 512"><!--! Font Awesome Pro 6.3.0 by @fontawesome - https://fontawesome.com License - https://fontawesome.com/license (Commercial License) Copyright 2023 Fonticons, Inc. --><defs><style>.fa-secondary{opacity:.4}</style></defs><path class="fa-primary" d="M352 0C303.4 0 261.8 27.38 240 67.25C218.3 27.38 176.6 0 128 0c-70.75 0-128 57.25-128 128S57.23 255.1 127.1 255.1L352 256c70.75 0 128-57.25 128-128S422.8 0 352 0zM128 192c-35.38 0-64-28.62-64-64s28.62-64 64-64s64 28.62 64 64S163.4 192 128 192zM352 192c-35.38 0-64-28.62-64-64s28.62-64 64-64s64 28.62 64 64S387.4 192 352 192zM524.8 262.5L448 320v128l76.76 57.54C545.9 521.4 576 506.3 576 479.9V288C576 261.7 545.9 246.6 524.8 262.5z"/><path class="fa-secondary" d="M368 288H31.1C14.33 288 0 302.3 0 319.1S14.33 352 31.1 352h32L64 464C64 490.5 85.49 512 112 512h256c26.51 0 48-21.49 48-48v-128C416 309.5 394.5 288 368 288zM128 160c17.67 0 32-14.33 32-32c0-17.67-14.33-32-32-32S96 110.3 96 128C96 145.7 110.3 160 128 160zM352 160c17.67 0 32-14.33 32-32c0-17.67-14.33-32-32-32s-32 14.33-32 32C320 145.7 334.3 160 352 160z"/></svg>
